public/sibr-mini.svg

<svg fill="none" height="116" viewBox="0 0 115 116" width="115" xmlns="http://www.w3.org/2000/svg"><g clip-rule="evenodd" fill="#000" fill-rule="evenodd"><path d="m89.2222 91.9938c-8.8548 6.595-19.8328 10.4982-31.7224 10.4982-12.0453 0-23.1549-4.006-32.0691-10.7585l4.3582-11.9742c7.313 6.6639 17.0374 10.727 27.7109 10.727 10.5125 0 20.1044-3.9415 27.3785-10.4275z"/><path d="m39.5046 14.6586.963 2.1167 7.1314.5568-6.5108 2.9623-.5569 7.1314-2.9623-6.5109-7.1313-.5568 6.5108-2.9623.5568-7.1314zm-13.2403 15.9527 2.4393-.6781 3.5909-.9982-4.4669 4.3842 1.6763 6.0303-4.3841-4.467-6.0303 1.6764 4.4669-4.3842-1.6764-6.0303 2.4732 2.5199zm14.9287-14.8718-.7144-1.5702c5.1446-2.4949 10.9192-3.894 17.0207-3.894 21.5701 0 39.0561 17.4861 39.0561 39.0562s-17.486 39.0562-39.0561 39.0562-39.0562-17.4861-39.0562-39.0562c0-4.1803.6568-8.2071 1.8727-11.9831l4.4767-1.2444.4242.4322c-1.3174 3.321-2.1371 6.8935-2.3673 10.6256 1.0213.0018 2.0332.0452 3.0343.1285l-.3602 4.3247c-.8814-.0734-1.7732-.1118-2.674-.1136 1.0758 17.4451 15.0351 31.4043 32.4802 32.4799-.0018-.9007-.0401-1.7923-.1135-2.6736l4.3246-.3602c.0834 1.0009.1268 2.0127.1286 3.0338 17.445-1.0759 31.404-15.0351 32.4797-32.4802-1.0211-.0018-2.0329-.0452-3.0337-.1285l.3602-4.3247c.8812.0734 1.7728.1118 2.6735.1136-1.0759-17.4449-15.0349-31.4039-32.4798-32.4798.0018.9006.0401 1.7923.1135 2.6735l-4.3246.3602c-.0834-1.0009-.1267-2.0127-.1285-3.0338-2.8512.1759-5.6092.6958-8.233 1.5188zm-11.0227 5.6902 6.0461.472c-2.4536 1.9066-4.6447 4.1351-6.5097 6.6222l-3.1152.866-1.6332-1.664c1.5158-2.2783 3.2645-4.3884 5.212-6.2962zm5.5868 5.1519 3.4098 4.1417 5.2744-.9809-4.1417 3.4099.9809 5.2743-3.4099-4.1417-5.2743.9809 4.1417-3.4099zm21.3056-.7623c.6334 1.9889 1.4308 3.9045 2.3762 5.7306l3.8538-1.995c-.8337-1.6106-1.5367-3.2994-2.095-5.0525zm6.9706 12.5946c1.3361 1.5807 2.8028 3.0474 4.3835 4.3835l2.8015-3.3142c-1.3958-1.1798-2.6909-2.475-3.8707-3.8707zm11.2475 8.978c1.8262.9453 3.7417 1.7427 5.7307 2.3762l1.3169-4.135c-1.7531-.5583-3.442-1.2613-5.0526-2.0951zm-17.3445 25.4518c-.6334-1.989-1.4308-3.9046-2.3761-5.7307l-3.8539 1.995c.8338 1.6106 1.5367 3.2994 2.095 5.0525zm-6.9706-12.5947c-1.3361-1.5807-2.8028-3.0474-4.3835-4.3835l-2.8014 3.3143c1.3957 1.1797 2.6909 2.4749 3.8706 3.8706zm-11.2475-8.978c-1.8262-.9453-3.7417-1.7427-5.7307-2.3762l-1.3168 4.135c1.753.5584 3.4419 1.2613 5.0525 2.0951z"/><path d="m53.3972 77.2457c17.7445 0 32.1293-14.3848 32.1293-32.1294 0-4.6946-1.0068-9.154-2.8164-13.1742 3.49 4.9593 5.5392 11.0056 5.5392 17.5305 0 16.8423-13.6533 30.4957-30.4956 30.4957-6.5246 0-12.5705-2.049-17.5296-5.5386 4.0198 1.8093 8.4789 2.816 13.1731 2.816z"/></g></svg>

<svg width="115" height="116" viewBox="0 0 115 116" fill="none" xmlns="http://www.w3.org/2000/svg">
<path fill-rule="evenodd" clip-rule="evenodd" d="M89.2222 91.9938C80.3674 98.5888 69.3894 102.492 57.4998 102.492C45.4545 102.492 34.3449 98.486 25.4307 91.7335L29.7889 79.7593C37.1019 86.4232 46.8263 90.4863 57.4998 90.4863C68.0123 90.4863 77.6042 86.5448 84.8783 80.0588L89.2222 91.9938Z" fill="black"/>
<path fill-rule="evenodd" clip-rule="evenodd" d="M39.5046 14.6586L40.4676 16.7753L47.599 17.3321L41.0882 20.2944L40.5313 27.4258L37.569 20.9149L30.4377 20.3581L36.9485 17.3958L37.5053 10.2644L39.5046 14.6586ZM26.2643 30.6113L28.7036 29.9332L32.2945 28.935L27.8276 33.3192L29.5039 39.3495L25.1198 34.8825L19.0895 36.5589L23.5564 32.1747L21.88 26.1444L24.3532 28.6643L24.3532 28.6643L26.2643 30.6113ZM41.193 15.7395L40.4786 14.1693C45.6232 11.6744 51.3978 10.2753 57.4993 10.2753C79.0694 10.2753 96.5554 27.7614 96.5554 49.3315C96.5554 70.9016 79.0694 88.3877 57.4993 88.3877C35.9292 88.3877 18.4431 70.9016 18.4431 49.3315C18.4431 45.1512 19.0999 41.1244 20.3158 37.3484L24.7925 36.104L25.2167 36.5362C23.8993 39.8572 23.0796 43.4297 22.8494 47.1618C23.8707 47.1636 24.8826 47.207 25.8837 47.2903L25.5235 51.615C24.6421 51.5416 23.7503 51.5032 22.8495 51.5014C23.9253 68.9465 37.8846 82.9057 55.3297 83.9813C55.3279 83.0806 55.2896 82.189 55.2162 81.3077L59.5408 80.9475C59.6242 81.9484 59.6676 82.9602 59.6694 83.9813C77.1144 82.9054 91.0734 68.9462 92.1491 51.5011C91.128 51.4993 90.1162 51.4559 89.1154 51.3726L89.4756 47.0479C90.3568 47.1213 91.2484 47.1597 92.1491 47.1615C91.0732 29.7166 77.1142 15.7576 59.6693 14.6817C59.6711 15.5823 59.7094 16.474 59.7828 17.3552L55.4582 17.7154C55.3748 16.7145 55.3315 15.7027 55.3297 14.6816C52.4785 14.8575 49.7205 15.3774 47.0967 16.2004L41.193 15.7395ZM30.1703 21.4297L36.2164 21.9017C33.7628 23.8083 31.5717 26.0368 29.7067 28.5239L26.5915 29.3899L24.9583 27.7259C26.4741 25.4476 28.2228 23.3375 30.1703 21.4297ZM35.7571 26.5816L39.1669 30.7233L44.4413 29.7424L40.2996 33.1523L41.2805 38.4266L37.8706 34.2849L32.5963 35.2658L36.738 31.8559L35.7571 26.5816ZM57.0627 25.8193C57.6961 27.8082 58.4935 29.7238 59.4389 31.5499L63.2927 29.5549C62.459 27.9443 61.756 26.2555 61.1977 24.5024L57.0627 25.8193ZM64.0333 38.4139C65.3694 39.9946 66.8361 41.4613 68.4168 42.7974L71.2183 39.4832C69.8225 38.3034 68.5274 37.0082 67.3476 35.6125L64.0333 38.4139ZM75.2808 47.3919C77.107 48.3372 79.0225 49.1346 81.0115 49.7681L82.3284 45.6331C80.5753 45.0748 78.8864 44.3718 77.2758 43.538L75.2808 47.3919ZM57.9363 72.8437C57.3029 70.8547 56.5055 68.9391 55.5602 67.113L51.7063 69.108C52.5401 70.7186 53.243 72.4074 53.8013 74.1605L57.9363 72.8437ZM50.9657 60.249C49.6296 58.6683 48.1629 57.2016 46.5822 55.8655L43.7808 59.1798C45.1765 60.3595 46.4717 61.6547 47.6514 63.0504L50.9657 60.249ZM39.7182 51.271C37.892 50.3257 35.9765 49.5283 33.9875 48.8948L32.6707 53.0298C34.4237 53.5882 36.1126 54.2911 37.7232 55.1249L39.7182 51.271Z" fill="black"/>
<path fill-rule="evenodd" clip-rule="evenodd" d="M53.3972 77.2457C71.1417 77.2457 85.5265 62.8609 85.5265 45.1163C85.5265 40.4217 84.5197 35.9623 82.7101 31.9421C86.2001 36.9014 88.2493 42.9477 88.2493 49.4726C88.2493 66.3149 74.596 79.9683 57.7537 79.9683C51.2291 79.9683 45.1832 77.9193 40.2241 74.4297C44.2439 76.239 48.703 77.2457 53.3972 77.2457Z" fill="black"/>
</svg>
